static/logos/texts-wordmark-color.svg

<svg width="100" height="30" viewBox="0 0 100 30" fill="none" xmlns="http://www.w3.org/2000/svg">
<g clip-path="url(#clip0_1_745)">
<g clip-path="url(#clip1_1_745)">
<path fill-rule="evenodd" clip-rule="evenodd" d="M13.9245 -0.264236C8.37349 0.163289 3.999 2.99573 1.83615 7.56298C0.953705 9.42632 0.397524 11.6314 0.164655 14.1898C-0.00285305 16.0301 -0.0637385 24.3823 0.0827205 25.4248C0.446409 28.0129 1.55916 28.9513 4.68595 29.3064C7.07508 29.5777 14.0991 29.7661 15.9237 29.6078C22.7618 29.0144 27.259 25.8953 29.2191 20.3865C31.309 14.5132 30.0274 7.80607 26.0568 3.83534C23.1083 0.886879 18.6294 -0.626596 13.9245 -0.264236Z" fill="url(#paint0_linear_1_745)"/>
<mask id="mask0_1_745" style="mask-type:alpha" maskUnits="userSpaceOnUse" x="0" y="-1" width="31" height="31">
<path fill-rule="evenodd" clip-rule="evenodd" d="M13.9245 -0.263992C8.37349 0.163533 3.999 2.99598 1.83615 7.56322C0.953705 9.42656 0.397524 11.6316 0.164655 14.19C-0.00285305 16.0303 -0.0637385 24.3825 0.0827205 25.4251C0.446409 28.0132 1.55916 28.9515 4.68595 29.3066C7.07508 29.578 14.0991 29.7664 15.9237 29.608C22.7618 29.0146 27.259 25.8955 29.2191 20.3867C31.309 14.5135 30.0274 7.80632 26.0568 3.83558C23.1083 0.887123 18.6294 -0.626352 13.9245 -0.263992Z" fill="url(#paint1_linear_1_745)"/>
</mask>
<g mask="url(#mask0_1_745)">
<g opacity="0.7" filter="url(#filter0_f_1_745)">
<path opacity="0.7" d="M19.9178 8.28935C21.7104 8.28935 23.1637 6.83611 23.1637 5.04345C23.1637 3.25079 21.7104 1.79755 19.9178 1.79755C18.1251 1.79755 16.6719 3.25079 16.6719 5.04345C16.6719 6.83611 18.1251 8.28935 19.9178 8.28935Z" fill="#46DEFF"/>
</g>
<g filter="url(#filter1_f_1_745)">
<path d="M3.69387 13.3446C5.18935 14.3331 8.03475 12.6639 10.0493 9.61632C12.0638 6.56872 12.4845 3.2968 10.989 2.30827C9.49357 1.31973 6.64817 2.98894 4.63366 6.03653C2.61916 9.08413 2.1984 12.3561 3.69387 13.3446Z" fill="#2C46E1"/>
</g>
<g opacity="0.7" filter="url(#filter2_f_1_745)">
<path opacity="0.7" d="M2.50216 7.47149C0.819911 10.7143 0.325065 13.5084 0.257288 13.4733C0.189512 13.4381 0.574472 10.587 2.25672 7.34417C3.93897 4.10133 5.8905 2.46888 5.95827 2.50404C6.02604 2.53919 4.18441 4.22865 2.50216 7.47149Z" fill="white"/>
</g>
</g>
</g>
<path d="M44.1101 24.2116H48.0204V8.75198H53.4325V5.52802H38.7109V8.75198H44.1101V24.2116Z" fill="black"/>
<path d="M58.0578 24.4964C59.0505 24.4964 59.9137 24.3669 60.6473 24.108C61.3896 23.849 62.0155 23.5038 62.5245 23.0722C63.0427 22.6406 63.4527 22.1658 63.755 21.6479C64.0568 21.13 64.2596 20.6164 64.3634 20.1072L64.4023 19.9647H60.9321L60.9064 20.0424C60.82 20.3014 60.656 20.556 60.4144 20.8063C60.1728 21.0566 59.8617 21.2638 59.4818 21.4278C59.1024 21.5918 58.6536 21.6738 58.1354 21.6738C57.4794 21.6738 56.9141 21.5314 56.4391 21.2466C55.9646 20.9531 55.5978 20.5344 55.3387 19.9906C55.0883 19.4468 54.9631 18.7908 54.9631 18.0225V16.5595C54.9631 15.7653 55.0883 15.0964 55.3387 14.5526C55.5978 14.0001 55.9515 13.5815 56.4003 13.2966C56.8579 13.0118 57.3799 12.8694 57.967 12.8694C58.5541 12.8694 59.0675 13.0075 59.508 13.2837C59.9568 13.5599 60.3062 13.9743 60.5565 14.5267C60.8069 15.0705 60.9321 15.7481 60.9321 16.5595V18.0096L62.7317 15.7826H53.0859V18.165H64.5187V16.9997C64.5187 15.6013 64.247 14.3799 63.7031 13.3355C63.1679 12.2911 62.4037 11.484 61.411 10.9142C60.427 10.3359 59.2577 10.0468 57.9025 10.0468C56.5473 10.0468 55.3688 10.3446 54.3678 10.9402C53.3751 11.5271 52.6026 12.3644 52.05 13.452C51.5061 14.531 51.2344 15.8085 51.2344 17.2845V17.2975C51.2344 18.7735 51.5061 20.051 52.05 21.13C52.6026 22.209 53.3882 23.0419 54.4066 23.6289C55.4251 24.2073 56.6419 24.4964 58.0578 24.4964Z" fill="black"/>
<path d="M64.8438 24.2116H68.819L71.4216 19.395H71.4993L74.1402 24.2116H78.245L73.9461 17.1939L78.2838 10.3316H74.1664L71.7064 15.0187H71.6283L69.1295 10.3316H64.87L69.1946 17.2975L64.8438 24.2116Z" fill="black"/>
<path d="M84.8047 24.4964C85.2021 24.4964 85.5514 24.4792 85.8537 24.4446C86.1642 24.4188 86.4233 24.3885 86.6305 24.354V21.5832C86.5184 21.6005 86.3976 21.6177 86.2681 21.635C86.1385 21.6436 85.9876 21.6479 85.8149 21.6479C85.2453 21.6479 84.8134 21.5228 84.5199 21.2724C84.2351 21.0135 84.0929 20.5603 84.0929 19.9129V13.1801H86.6305V10.3316H84.0929V6.93933H80.2734V10.3316H78.3438V13.1801H80.2734V20.3272C80.2734 21.8119 80.6446 22.878 81.3869 23.5254C82.1288 24.1727 83.2685 24.4964 84.8047 24.4964Z" fill="black"/>
<path d="M93.9254 24.4964C95.1166 24.4964 96.1656 24.3108 97.0719 23.9397C97.9865 23.5599 98.7032 23.0333 99.2209 22.36C99.7391 21.6868 99.9982 20.897 99.9982 19.9906V19.9777C99.9982 18.9591 99.6784 18.1477 99.0399 17.5435C98.4096 16.9393 97.3655 16.4861 95.9065 16.184L93.5498 15.679C92.8507 15.5323 92.363 15.3381 92.087 15.0964C91.8109 14.8547 91.6726 14.5569 91.6726 14.203V14.19C91.6726 13.8879 91.759 13.6289 91.9317 13.4132C92.1039 13.1888 92.3499 13.0161 92.6697 12.8953C92.989 12.7744 93.3645 12.714 93.7958 12.714C94.495 12.714 95.0433 12.8823 95.4402 13.2189C95.8463 13.5469 96.0792 13.9613 96.1394 14.4619L96.1525 14.5655H99.6352V14.436C99.6095 13.6247 99.3635 12.8866 98.8972 12.222C98.4397 11.5573 97.7798 11.0308 96.9162 10.6424C96.0617 10.2453 95.0219 10.0468 93.7958 10.0468C92.6221 10.0468 91.595 10.228 90.7143 10.5906C89.8424 10.9445 89.1694 11.4451 88.6944 12.0925C88.2199 12.7399 87.9826 13.5081 87.9826 14.3972V14.4102C87.9826 15.446 88.3189 16.3005 88.9923 16.9738C89.6745 17.6385 90.6886 18.1132 92.035 18.398L94.3917 18.8901C95.0734 19.0454 95.5484 19.2354 95.8157 19.4598C96.0836 19.6842 96.217 19.982 96.217 20.3532V20.3661C96.217 20.6682 96.1224 20.9272 95.9322 21.143C95.7512 21.3587 95.4921 21.5271 95.1554 21.6479C94.8186 21.7601 94.4087 21.8162 93.9254 21.8162C93.1743 21.8162 92.5877 21.6652 92.1646 21.3631C91.7415 21.061 91.4698 20.638 91.349 20.0942L91.3228 19.9777H87.6328L87.6459 20.0942C87.7493 20.966 88.0515 21.7342 88.5523 22.3989C89.0612 23.0549 89.7648 23.5685 90.6629 23.9397C91.5605 24.3108 92.6479 24.4964 93.9254 24.4964Z" fill="black"/>
</g>
<defs>
<filter id="filter0_f_1_745" x="10.0817" y="-4.79262" width="19.6725" height="19.6721" filterUnits="userSpaceOnUse" color-interpolation-filters="sRGB">
<feFlood flood-opacity="0" result="BackgroundImageFix"/>
<feBlend mode="normal" in="SourceGraphic" in2="BackgroundImageFix" result="shape"/>
<feGaussianBlur stdDeviation="3.29508" result="effect1_foregroundBlur_1_745"/>
</filter>
<filter id="filter1_f_1_745" x="-3.79329" y="-4.56648" width="22.2663" height="24.7858" filterUnits="userSpaceOnUse" color-interpolation-filters="sRGB">
<feFlood flood-opacity="0" result="BackgroundImageFix"/>
<feBlend mode="normal" in="SourceGraphic" in2="BackgroundImageFix" result="shape"/>
<feGaussianBlur stdDeviation="3.29508" result="effect1_foregroundBlur_1_745"/>
</filter>
<filter id="filter2_f_1_745" x="-0.930328" y="1.32315" width="8.07159" height="13.3307" filterUnits="userSpaceOnUse" color-interpolation-filters="sRGB">
<feFlood flood-opacity="0" result="BackgroundImageFix"/>
<feBlend mode="normal" in="SourceGraphic" in2="BackgroundImageFix" result="shape"/>
<feGaussianBlur stdDeviation="0.590164" result="effect1_foregroundBlur_1_745"/>
</filter>
<linearGradient id="paint0_linear_1_745" x1="15.106" y1="-0.317139" x2="15.106" y2="29.6656" gradientUnits="userSpaceOnUse">
<stop stop-color="#4058E9"/>
<stop offset="0.296875" stop-color="#5B86FF"/>
<stop offset="0.833333" stop-color="#4B6CFF"/>
<stop offset="1" stop-color="#6DA1FF"/>
</linearGradient>
<linearGradient id="paint1_linear_1_745" x1="15.106" y1="-0.316894" x2="15.106" y2="29.6659" gradientUnits="userSpaceOnUse">
<stop stop-color="#4058E9"/>
<stop offset="0.296875" stop-color="#5B86FF"/>
<stop offset="0.833333" stop-color="#4B73FF"/>
<stop offset="1" stop-color="#6DA1FF"/>
</linearGradient>
<clipPath id="clip0_1_745">
<rect width="100" height="29.5973" fill="white"/>
</clipPath>
<clipPath id="clip1_1_745">
<rect width="30.2459" height="30" fill="white" transform="translate(0 -0.317383)"/>
</clipPath>
</defs>
</svg>

<svg xmlns="http://www.w3.org/2000/svg" width="213.333" height="64" fill="none" viewBox="0 0 100 30"><g clip-path="url(#a)"><g clip-path="url(#b)"><path fill="url(#c)" fill-rule="evenodd" d="M13.925-.264C8.373.163 3.998 2.996 1.835 7.563.954 9.426.398 11.631.165 14.19c-.168 1.84-.229 10.192-.082 11.235.363 2.588 1.476 3.526 4.603 3.881 2.39.272 9.413.46 11.238.302 6.838-.594 11.335-3.713 13.295-9.221 2.09-5.874.808-12.58-3.162-16.552-2.949-2.948-7.428-4.462-12.132-4.1Z" clip-rule="evenodd"/><mask id="e" width="31" height="31" x="0" y="-1" maskUnits="userSpaceOnUse" style="mask-type:alpha"><path fill="url(#d)" fill-rule="evenodd" d="M13.925-.264C8.373.164 3.998 2.996 1.835 7.563.954 9.427.398 11.632.165 14.19c-.168 1.84-.229 10.193-.082 11.235.363 2.588 1.476 3.526 4.603 3.882 2.39.271 9.413.46 11.238.301 6.838-.593 11.335-3.713 13.295-9.221 2.09-5.873.808-12.58-3.162-16.551-2.949-2.949-7.428-4.462-12.132-4.1Z" clip-rule="evenodd"/></mask><g mask="url(#e)"><g filter="url(#f)" opacity=".7"><path fill="#46DEFF" d="M19.918 8.29a3.246 3.246 0 1 0 0-6.493 3.246 3.246 0 0 0 0 6.492Z" opacity=".7"/></g><g filter="url(#g)"><path fill="#2C46E1" d="M3.694 13.345c1.495.988 4.34-.681 6.355-3.729 2.015-3.047 2.436-6.32.94-7.308-1.495-.988-4.34.68-6.355 3.729-2.015 3.047-2.436 6.32-.94 7.308Z"/></g><g filter="url(#h)" opacity=".7"><path fill="#fff" d="M2.502 7.471C.82 10.714.325 13.508.257 13.473c-.067-.035.317-2.886 2-6.129C3.939 4.101 5.89 2.47 5.958 2.504c.068.035-1.774 1.725-3.456 4.967Z" opacity=".7"/></g></g></g><path fill="#000" d="M44.11 24.212h3.91V8.752h5.412V5.528H38.712v3.224h5.4v15.46ZM58.058 24.496c.992 0 1.856-.13 2.59-.388.742-.259 1.367-.604 1.877-1.036a5.41 5.41 0 0 0 1.23-1.424 5.081 5.081 0 0 0 .608-1.54l.04-.143h-3.47l-.027.077c-.086.26-.25.514-.492.764-.241.25-.552.458-.932.622-.38.164-.828.246-1.347.246-.656 0-1.22-.143-1.696-.427a2.903 2.903 0 0 1-1.1-1.256c-.25-.544-.376-1.2-.376-1.968V16.56c0-.795.125-1.464.376-2.007.259-.553.613-.972 1.061-1.256.458-.285.98-.428 1.567-.428s1.1.139 1.541.415c.449.276.798.69 1.048 1.243.25.543.376 1.221.376 2.033v1.45l1.8-2.227h-9.646v2.382h11.433V17c0-1.399-.272-2.62-.816-3.665a5.75 5.75 0 0 0-2.292-2.42c-.984-.58-2.153-.868-3.508-.868-1.356 0-2.534.298-3.535.893-.993.587-1.765 1.424-2.318 2.512-.544 1.079-.816 2.357-.816 3.833v.012c0 1.476.272 2.754.816 3.833.553 1.079 1.338 1.912 2.357 2.499 1.018.578 2.235.867 3.65.867ZM64.844 24.212h3.975l2.603-4.817h.077l2.641 4.817h4.105l-4.299-7.018 4.338-6.862h-4.118l-2.46 4.687h-.078l-2.499-4.687H64.87l4.325 6.965-4.351 6.915ZM84.805 24.496c.397 0 .746-.017 1.049-.051.31-.026.57-.056.776-.091v-2.77c-.112.017-.232.034-.362.051-.13.009-.28.013-.453.013-.57 0-1.002-.125-1.295-.376-.285-.258-.427-.712-.427-1.36V13.18h2.537v-2.848h-2.537V6.939h-3.82v3.393h-1.93v2.848h1.93v7.147c0 1.485.372 2.551 1.114 3.198.742.648 1.882.971 3.418.971ZM93.925 24.496c1.192 0 2.24-.185 3.147-.556.915-.38 1.631-.907 2.149-1.58s.777-1.463.777-2.37v-.012c0-1.019-.32-1.83-.958-2.434-.63-.605-1.675-1.058-3.134-1.36l-2.356-.505c-.7-.147-1.187-.34-1.463-.583a1.142 1.142 0 0 1-.414-.893v-.013c0-.302.086-.561.259-.777.172-.224.418-.397.738-.518.319-.12.695-.181 1.126-.181.699 0 1.247.168 1.644.505.406.328.64.742.7 1.243l.013.104h3.482v-.13a3.997 3.997 0 0 0-.738-2.214c-.457-.665-1.117-1.191-1.98-1.58-.855-.397-1.895-.595-3.121-.595-1.174 0-2.201.181-3.082.544-.872.354-1.545.854-2.02 1.502-.474.647-.711 1.415-.711 2.304v.013c0 1.036.336 1.89 1.01 2.564.681.665 1.696 1.14 3.042 1.424l2.357.492c.681.155 1.156.345 1.424.57.268.224.401.522.401.893v.013c0 .302-.095.561-.285.777-.18.216-.44.384-.777.505-.336.112-.746.168-1.23.168-.75 0-1.337-.15-1.76-.453-.424-.302-.695-.725-.816-1.269l-.026-.116h-3.69l.013.116a4.67 4.67 0 0 0 .906 2.305c.51.656 1.213 1.17 2.11 1.54.898.372 1.986.557 3.263.557Z"/></g><defs><filter id="f" width="19.672" height="19.672" x="10.082" y="-4.793" color-interpolation-filters="sRGB" filterUnits="userSpaceOnUse"><feFlood flood-opacity="0" result="BackgroundImageFix"/><feBlend in="SourceGraphic" in2="BackgroundImageFix" result="shape"/><feGaussianBlur result="effect1_foregroundBlur_1_745" stdDeviation="3.295"/></filter><filter id="g" width="22.266" height="24.786" x="-3.793" y="-4.566" color-interpolation-filters="sRGB" filterUnits="userSpaceOnUse"><feFlood flood-opacity="0" result="BackgroundImageFix"/><feBlend in="SourceGraphic" in2="BackgroundImageFix" result="shape"/><feGaussianBlur result="effect1_foregroundBlur_1_745" stdDeviation="3.295"/></filter><filter id="h" width="8.072" height="13.331" x="-.93" y="1.323" color-interpolation-filters="sRGB" filterUnits="userSpaceOnUse"><feFlood flood-opacity="0" result="BackgroundImageFix"/><feBlend in="SourceGraphic" in2="BackgroundImageFix" result="shape"/><feGaussianBlur result="effect1_foregroundBlur_1_745" stdDeviation=".59"/></filter><linearGradient id="c" x1="15.106" x2="15.106" y1="-.317" y2="29.666" gradientUnits="userSpaceOnUse"><stop stop-color="#4058E9"/><stop offset=".297" stop-color="#5B86FF"/><stop offset=".833" stop-color="#4B6CFF"/><stop offset="1" stop-color="#6DA1FF"/></linearGradient><linearGradient id="d" x1="15.106" x2="15.106" y1="-.317" y2="29.666" gradientUnits="userSpaceOnUse"><stop stop-color="#4058E9"/><stop offset=".297" stop-color="#5B86FF"/><stop offset=".833" stop-color="#4B73FF"/><stop offset="1" stop-color="#6DA1FF"/></linearGradient><clipPath id="a"><path fill="#fff" d="M0 0h100v29.597H0z"/></clipPath><clipPath id="b"><path fill="#fff" d="M0-.317h30.246v30H0z"/></clipPath></defs></svg>
